X: 1
T: Our Kate
M: 3/4
L: 1/8
R: waltz
K: Dmaj
FG|:A3d AF|G2A2 FD|=C2 (D4|D4) FG|
A3d AF|G4A2|(G6|G3)E FG|
A3d AF|G2A2 FD|=C2 (D4|D4) B,2|
=C3B, =C2|D4 D=C|(D6|1D3)E FG:|2D4|]
A2|:d3A= F2|=c3G E2|G2 (A4|A4) AB|
=c3G E2|B3G E2|(A6|A4)FG|
A3d AF|G2A2 FD|=C2 (D4|D4) B,2|
=C3B, =C2|D4 D=C|(D6|D4)|]
